polaris-icons/icons/newicons/PageUpMajor.svg

<svg width="20" height="20" viewBox="0 0 20 20" fill="none" xmlns="http://www.w3.org/2000/svg">
<path fill-rule="evenodd" clip-rule="evenodd" d="M5.5 4.75C5.5 4.05964 6.05964 3.5 6.75 3.5H9.25V7C9.25 7.9665 10.0335 8.75 11 8.75H14.5V10.75C14.5 11.1642 14.8358 11.5 15.25 11.5C15.6642 11.5 16 11.1642 16 10.75V8C16 7.80109 15.921 7.61032 15.7803 7.46967L10.5303 2.21967C10.3897 2.07902 10.1989 2 10 2H6.75C5.23122 2 4 3.23122 4 4.75V15.25C4 16.7688 5.23122 18 6.75 18H9.75C10.1642 18 10.5 17.6642 10.5 17.25C10.5 16.8358 10.1642 16.5 9.75 16.5H6.75C6.05964 16.5 5.5 15.9404 5.5 15.25V4.75ZM13.4393 7.25L10.75 4.56066V7C10.75 7.13807 10.8619 7.25 11 7.25H13.4393Z" fill="black"/>
<path d="M13.625 18.25C13.625 18.6642 13.9608 19 14.375 19C14.7892 19 15.125 18.6642 15.125 18.25V15.4759L15.7383 16.0483C16.0411 16.3309 16.5157 16.3145 16.7983 16.0117C17.0809 15.7089 17.0645 15.2343 16.7617 14.9517L14.8867 13.2017C14.5986 12.9327 14.1514 12.9327 13.8633 13.2017L11.9883 14.9517C11.6854 15.2343 11.6691 15.7089 11.9517 16.0117C12.2343 16.3145 12.7089 16.3309 13.0117 16.0483L13.625 15.4759V18.25Z" fill="black"/>
</svg>

<svg viewBox="0 0 20 20" fill="none" xmlns="http://www.w3.org/2000/svg"><path fill-rule="evenodd" clip-rule="evenodd" d="M5.5 4.75c0-.69.56-1.25 1.25-1.25h2.5v3.5c0 .966.784 1.75 1.75 1.75h3.5v2a.75.75 0 0 0 1.5 0v-2.75a.75.75 0 0 0-.22-.53l-5.25-5.25a.75.75 0 0 0-.53-.22h-3.25a2.75 2.75 0 0 0-2.75 2.75v10.5a2.75 2.75 0 0 0 2.75 2.75h3a.75.75 0 0 0 0-1.5h-3c-.69 0-1.25-.56-1.25-1.25v-10.5Zm7.94 2.5-2.69-2.69v2.44c0 .138.112.25.25.25h2.44Z" fill="#5C5F62"/><path d="M13.625 18.25a.75.75 0 0 0 1.5 0v-2.774l.613.572a.75.75 0 0 0 1.024-1.096l-1.875-1.75a.75.75 0 0 0-1.024 0l-1.875 1.75a.75.75 0 1 0 1.024 1.096l.613-.572v2.774Z" fill="#5C5F62"/></svg>
